!!!OTL: SCHOEN HANNCHEN GING AM UFER
!!!ARE: Europa, Mitteleuropa, Deutschland, Hessen, Lahn - Kreis; Dill -
!!    Kreis; Limburg; Hanau; Wetzlar
!!!SCT: E0708B
!!!YEM: Copyright 1995, estate of Helmut Schaffrath.
**kern
*ICvox
*Ivox
*M2/4
*k[b-]
*F:
{8c
=1
8f
8f
8f
8f
=2
4a
8g}
{8f
=3
8e
8g
8.b-
16a
=4
4g
8r}
{8g
=5
8b-
8b-
8b-
8b-
=6
4dd
8cc}
{8b-
=7
8cc
8a
8a
8a
=8
4a
8r}
==
!!!AGN: Liebes - Lied, Leid, Klage, Tod
!!!ONB: ESAC (Essen Associative Code) Database: ERK2
!!!AMT: simple duple
!!!AIN: vox
!!!EED: Helmut Schaffrath
!!!EEV: 1.0
*-
